X:49
T:Hark the Huntsman’s begun. JJo.049
S:J.Jones MS,1801,N.Shrops.
N:”sy” mark before last 4 bars denotes a musical bridge
N:before next verse of song.
A:N. Shropshire
Z:Neil Brookes 2006
M:3/4
L:1/8
Q:3/4=40
K:C
c>G|c2cede|c4c2|e2egfg|e4e2|{e}d2BdBG|A2cA GF|G4GG|!
d2dede|d2G2B2|c3 edf|{f}e4e2|”qu”f2 f>ge>f|d2d>ec>d|!
B2B>cA>B|G4d2|e3Bc2|A2F2G2|C4″sy”a2|g3fe2|f2e2d2|c2GGEE|C4|]

